storage/app/icons/phosphoricons/duotone/grid-nine-duotone.svg

<svg xmlns="http://www.w3.org/2000/svg" fill="currentColor" viewBox="0 0 256 256"><path d="M224 64v128a8 8 0 0 1-8 8H40a8 8 0 0 1-8-8V64a8 8 0 0 1 8-8h176a8 8 0 0 1 8 8" opacity=".2"/><path d="M216 48H40a16 16 0 0 0-16 16v128a16 16 0 0 0 16 16h176a16 16 0 0 0 16-16V64a16 16 0 0 0-16-16m-112 96v-32h48v32Zm48 16v32h-48v-32ZM40 112h48v32H40Zm64-16V64h48v32Zm64 16h48v32h-48Zm48-16h-48V64h48ZM88 64v32H40V64Zm-48 96h48v32H40Zm176 32h-48v-32h48z"/></svg>

<svg xmlns="http://www.w3.org/2000/svg" viewBox="0 0 256 256" fill="currentColor"><path d="M224,64V192a8,8,0,0,1-8,8H40a8,8,0,0,1-8-8V64a8,8,0,0,1,8-8H216A8,8,0,0,1,224,64Z" opacity="0.2"/><path d="M216,48H40A16,16,0,0,0,24,64V192a16,16,0,0,0,16,16H216a16,16,0,0,0,16-16V64A16,16,0,0,0,216,48ZM104,144V112h48v32Zm48,16v32H104V160ZM40,112H88v32H40Zm64-16V64h48V96Zm64,16h48v32H168Zm48-16H168V64h48ZM88,64V96H40V64ZM40,160H88v32H40Zm176,32H168V160h48v32Z"/></svg>
